packages/tokens/icons/report3/size24Px.svg

<svg viewBox="0 0 24 24" fill="none" xmlns="http://www.w3.org/2000/svg" width="1em" height="1em"><path d="M13.478 3V6.50924C13.478 7.61381 14.3735 8.50924 15.478 8.50924H19.3085" stroke="currentColor"/><path d="M18 20.5L6 20.5C5.17157 20.5 4.5 19.8284 4.5 19L4.5 5C4.5 4.17157 5.17157 3.5 6 3.5L14.1019 3.5C14.5303 3.5 14.9383 3.68322 15.223 4.00345L19.1211 8.38885C19.3652 8.66343 19.5 9.01803 19.5 9.3854V19C19.5 19.8284 18.8284 20.5 18 20.5Z" stroke="currentColor"/><path d="M7.5 17.5L10.5 12.5L13.5 15.5L16.5 10.5" stroke="currentColor" stroke-linejoin="round"/><path d="M11 12.5C11 12.7761 10.7761 13 10.5 13C10.2239 13 10 12.7761 10 12.5C10 12.2239 10.2239 12 10.5 12C10.7761 12 11 12.2239 11 12.5Z" stroke="currentColor"/><path d="M14 15.5C14 15.7761 13.7761 16 13.5 16C13.2239 16 13 15.7761 13 15.5C13 15.2239 13.2239 15 13.5 15C13.7761 15 14 15.2239 14 15.5Z" stroke="currentColor"/><circle cx="16" cy="11" r="0.5" stroke="currentColor"/><path d="M7.5 10L7.5 17.5H16" stroke="currentColor" stroke-linecap="round" stroke-linejoin="round"/></svg>

<svg xmlns="http://www.w3.org/2000/svg" fill="none" viewBox="0 0 24 24" width="1em" height="1em"><path stroke="currentColor" d="M13.478 3v3.51a2 2 0 0 0 2 2h3.83"/><path stroke="currentColor" d="M18 20.5H6A1.5 1.5 0 0 1 4.5 19V5A1.5 1.5 0 0 1 6 3.5h8.102a1.5 1.5 0 0 1 1.121.503l3.898 4.386a1.5 1.5 0 0 1 .379.996V19a1.5 1.5 0 0 1-1.5 1.5Z"/><path stroke="currentColor" stroke-linejoin="round" d="m7.5 17.5 3-5 3 3 3-5"/><path stroke="currentColor" d="M11 12.5a.5.5 0 1 1-1 0 .5.5 0 0 1 1 0Zm3 3a.5.5 0 1 1-1 0 .5.5 0 0 1 1 0Z"/><circle cx="16" cy="11" r=".5" stroke="currentColor"/><path stroke="currentColor" stroke-linecap="round" stroke-linejoin="round" d="M7.5 10v7.5H16"/></svg>
